X: 30271
T: Old Lord Gordon's
R: reel
M: 4/4
K: Dmajor
dB|A2 (3FED AD (3FED|AD (3FED A2FA|~B2eB ~B2AB|defd BAFA|
~d3f eBdB|AF~F2 ABde|~f2ef dBAF|EFGA B2:|
|:ag|fada fadf|afdf a2ba|gaea gaba|~g3a bafg|
afeg fedB|AF~F2 ABde|~f2ef dBAF|EFGA B2:|

